X:2
T:Adore Barch
Z:id:hn-mazurka-3
M:3/4
K:A
d:|: BA BA BA|B2 A2 BA|B2 A2 A2 |
B2 AG AG|F2 AG FA


*****************************


14100 0 1.7728088 

<starion (36 A2 AB | d2 BA GB | d2 c2 BA | B2 c2 BA | B2 B2 A2 | B2 c2 A2 | B2 c2 B2 | B2 c2 B2 | B2 c2 B


*****************************


14200 0 1.6889701 

<star
H:Also po po po po poler's #1
Z:id:hn-mazurka-1
M:3/4
L:1/8
K:G
GB|c2 d2|e2 ed|c2 ed|c2 A2|B2 A2|
B


*****************************


14300 0 1.7670121 

<star
A>B AB|ce dB|AB AB|ce dB|AB AB|ce dB|AB AB|ce dB|A2 AB|ce dB|AB AB|ce dB|AB AB|ce dB|AB AB|ce dB|AB


*****************************


14400 0 0.5385331 

<start
B>A BA|BA BA|BA BA|AB ce|dB AB|ce dB|AB AB|ce d>B|AB AB|ce d>B|A2 A2:|2 BA A2||
<end>
<start>
